X:1
T:Wq.118/3
T:Carl Philipp Emanuel Bach Wq.118/3 
T:Menuett.
T:Menuet con 5 Variazoni
C:Carl Philipp Emanuel Bach
%%score { ( 1 3 ) | ( 2 4 5 ) }
L:1/8
Q:1/4=120
M:3/4
K:C
V:1 treble nm="Piano" snm="Pno."
V:3 treble 
V:2 bass 
V:4 bass 
V:5 bass 
V:1
 gedc a2 |{c} PB4 c2 | d2 F2 F2 |{G} PF2 ED E2 | e2 [D^F]2 [DG]2 | ABcABG | e2 [D^F]2 [DG]2 | %7
 ABcABg | ec{B} PA4 |1 G6 :|2 G6 |: G2 BGdB | G2 cGec | x2 f2 e2 | e2 d4 | a2 B2 c2 | defdec | %17
 a2 B2 c2 | defdec' | af{e} d4 |1 c6 :|2 c6 |]:[M:3/4]"^Variation 1." z gBc z a | z BdG cg | %24
 (gf) z dBF | z FDE z2 | z ee^F z G | z cacPcB | z e^Fe Gd | (dc) z ABg | ecBgA^f |1 ^fg G4 :|2 %32
 .^fg G4 |: z GgBdG | z Gged^c | (^cd) z Gfe | ed z (^fg)B | z aaG z c | z fd'fPfe | z AB,A CG | %40
 GF z DEc | AFEcDB |1 Bc C4 :|2 Bc !fermata!C4 |]:[M:3/4]"^Variation 2" (3egf (3edc (3afd | %45
{c} PB4 c2 | (3z dc (3BAG (3FdF | (3FGF (3EFD E2 | (3eE^F (3eEF (3dFG | (3d^GA (3ABc (3Bdg | %50
 (3ec'e (3^fc'f (3gbg | (3ag^f (3edc (3Bdg | (3edc (3BdG (3Ac^F |1 G6 :|2 G6 |: (3Bdc (3BAG (3gdB | %56
 (3ced (3cBc (3gec | (3z df (3agf (3edc | (3Bcd (3cBA (3BAG | (3aAB (3aAB (3gBc | %60
 (3g^cd (3def (3egc' | (3AfA (3BfB (3cec | (3dcB (3AGF (3EGc | (3AGF (3EGC (3DFB, |1 C6 :|2 C6 |]: %66
[M:3/4]"^Variation 3" g/e/d/c/ g/e/d/c/ a/f/d/c/ | B/G/d/B/ g/d/B/G/ c/G/E/C/ | %68
 z/ G/^F/G/ B/G/d/c/ B/A/G/=F/ | F/E/c/E/ E/D/B/D/ C/E/G/c/ | e/G/^F/E/ F/A/d/F/ G/B/d/G/ | %71
 A/B/c/e/ d/c/B/A/ B/d/g/B/ | e/c'/e/c'/ ^f/c'/f/c'/ g/b/g/b/ | a/g/^f/e/ d/c/B/A/ c/B/A/G/ | %74
 e/c/B/A/ c/G/d/G/ B/A/c/^F/ |1 G/g/d/B/ G4 :|2 G6 |: B/d/c/B/ g/d/c/B/ d/B/A/G/ | %78
 c/G/A/B/ c/d/e/f/ g/e/d/c/ | d/e/f/g/ a/f/e/d/ e/c/g/e/ | Pe2 d4 | a/c/B/A/ B/d/g/B/ c/e/g/c/ | %82
 d/e/f/a/ g/f/e/d/ e/d/c/B/ | A/f/A/f/ B/f/B/f/ c/e/c/e/ | d/c/B/A/ G/F/E/D/ F/E/D/C/ | %85
 A/F/E/D/ E/G/c/E/ D/F/c/B/ |1 c/C/E/G/ c4 :|2 c/C/D/E/ F/G/A/B/ c/d/e/f/ |]: %88
[M:3/4]"^Variation 4"[Q:1/4=110] gedc a2 |{c} PB4 c2 | d2 F2 F2 |{G} F2 ED E2 | e2 ^F2 G2 | %93
 ABcABG | e2 ^F2 G2 | ABcABg | ec{B} PA4 :|1 G6 |:2 G6 |: G2 BGdB | G2 cGec | G2 f2 e2 | e2 d4 | %103
 a2 B2 c2 | defdec | a2 B2 c2 | defdec' | af{e} Pd4 |1 c6 :|2 c6 |]: %110
[M:3/4]"^Variation 5." g3/2f/4g/4 c'>g a/f/d/c/ |{c} MB4 c/G/c/e/ | (e2 (3d)cB (3AGF | %113
{G} PF2 E2 z2 | ed/4c/4B/4A/4{G} P[D^F]2 G/B/d/g/ | dd- d/c/B/A/ (AMB) | %116
 z/ e/d/c/ B/A/G/^F/ E/D/C/B,/ | z6 | E2 (3c/B/A/ G T^F2 | G/B/G/D/{C} B,4 :: g/B/ B2 B2 g/B/ | %121
 g/c/ c2 c2 g/^c/ | g/d/d- d/e/f/a/ g/f/e/d/ | e/c/g/e/{f} (Pe2 d2) | %124
 ag/4f/4e/4d/4{c} B2 c/e/g/c'/ | gg- g/f/e/d/ dMe | z/ a/g/f/ e/d/c/B/ A/G/F/E/ | x6 | %128
 A3 G/4F/4(E/4D/4) CTB, | C/E/C/[I:staff +1]G,/[I:staff -1] z4 :| %130
V:2
 C,2 E,2 F,2 | G,2 F,2 E,2 | B,,4 G,,2 | C,2 G,,2 C,,2 | z2 C2 B,2 | z2 ^F,2 G,2 | z2 C2 B,2 | %7
 z2 ^F,2 G,2 | C2 D2 D,2 |1 G,G,,G,F,E,D, :|2 G,,A,,B,,C,D,E, |: F,6 | E,6 | B,,4 C,2 | %14
 G,,2 G,^F, G,2 | z2 G,2 G,2 | z2 G,2 G,2 | z2 G,2 G,2 | z2 G,2 G,2 | F,2 G,2 G,,2 |1 %20
 C,B,,C,D,E,C, :|2 C,CG,F,E,D, |]:[M:3/4] C,2 E,2 F,2 | G,2 F,2 E,2 | z2 B,,2 G,,2 | C,2 z C,E,G, | %26
 x4 D2 | D4 D2 | C,2 x2 D2 | z2 D2 D2 | C2 D2 D,2 |1 G,3 F,E,D, :|2 G,,3 G,,B,,D, |: z2 D2 B,2 | %34
 C2 E2 G,2 | z2 G,2 G,2 | G,2 G,,2 z2 | x4 G,2 | G,4 G,2 | F,,2 x2 G,2 | z2 G,2 G,2 | %41
 F,2 G,2 G,,2 |1 C,3 D,E,C, :|2 C,3 CF,!fermata!E, |]:[M:3/4] C,2 E,2 F,2 | G,2 F,2 E,2 | %46
 B,,4 G,,2 | C,2 G,,2 C,,2 | C,2 C2 B,2 | ^F,4 G,2 | C,2 D,2 E,2 | ^F,4 G,2 | C,2 D,2 D,,2 |1 %53
 (3G,,B,,D, (3G,F,E, (3F,E,F, :|2 (3G,,B,,D, (3G,DC (3B,A,G, |: F,2 F,,2 F,2 | E,2 E,,2 E,2 | %57
 B,,4 C,2 | G,,2 G,4 | F,4 E,2 | B,,4 C,2 | F,,2 G,,2 A,,2 | B,,4 C,2 | F,2 G,2 G,,2 |1 %64
 (3C,E,G, (3CG,F, (3F,E,C, :|2 (3C,E,G, (3CG,E, (3F,E,D, |]:[M:3/4] C,2 E,2 F,2 | G,2 F,2 E,2 | %68
 B,,4 G,,2 | C,2 G,,2 C,,2 | C,2 C2 B,2 | ^F,4 G,2 | C,2 D,2 E,2 | ^F,4 G,2 | C,2 D,2 D,,2 |1 %75
 G,,2 z/ G,,/B,,/D,/ G,/F,/E,/D,/ :|2 G,,/G,/^F,/E,/ D,/C,/B,,/A,,/ G,,/B,,/D,/G,/ |: %77
 F,2 F,,2 F,2 | E,2 E,,2 E,2 | B,,4 C,2 | z/ G,,/G,/^F,/ G,/G,,/B,,/D,/ G,/D,/B,,/G,,/ | %81
 F,,2 F,2 E,2 | B,,4 C,2 | F,,2 G,,2 A,,2 | B,,4 C,2 | F,,2 G,,2 G,,2 |1 %86
 C,,2 z/ C/G,/E,/ C,/E,/D,/C,/ :|2 C,,6 |]:[M:3/4] C,/C/C,/C/ E,/C/E,/C/ F,/C/F,/D/ | %89
 G,/D/G,/D/ F,/D/F,/D/ E,/C/E,/C/ | B,,/G,/B,,/G,/ B,,/G,/G,,/G,/ A,,/G,/B,,/G,/ | %91
 C,/G,/C,/G,/ C,/G,/C,/G,/ C,/G,/C,/G,/ | C,/C/C,/C/ D,/C/D,/C/ E,/B,/E,/B,/ | %93
 ^F,/D/F,/D/ F,/D/F,/D/ G,/D/G,/D/ | C/E/C/E/ C/D/C/D/ B,/D/B,/D/ | %95
 ^F,/D/F,/D/ F,/D/F,/D/ G,/D/B,/D/ | C/D/E/C/ D/G/D/G/ D/^F/D/F/ :|1 %97
 G/G,/B,/C/ D/C/B,/A,/ G,/F,/E,/D,/ |:2 G/G,/B,/D/G/^F/E/D/ C/B,/A,/G,/ |: %99
 F,/G,/F,/G,/ F,/G,/F,/G,/ F,/G,/F,/G,/ | E,/G,/E,/G,/ E,/G,/E,/G,/ E,/G,/E,/G,/ | %101
 B,,/G,/B,,/G,/ B,,/G,/B,,/G,/ C,/G,/C,/G,/ | G,,/G,/G,,/G,/ G,,/A,,/B,,/C,/ D,/E,/^F,/G,/ | %103
 F,/A,/F,/A,/ F,/G,/F,/G,/ E,/G,/E,/G,/ | B,,/G,/B,,/G,/ B,,/G,/B,,/G,/ C,/G,/C,/G,/ | %105
 F,,/F,/F,,/F,/ G,,/F,/G,,/F,/ A,,/E,/A,,/E,/ | B,,/G,/B,,/G,/ B,,/G,/B,,/G,/ C,/G,/E,/G,/ | %107
 F,/G,/A,/F,/ G,/C/G,/C/ G,/B,/G,/B,/ |1 C/C,/E,/G,/ C/B,/A,/G,/ F,/E,/D,/C,/ :|2 %109
 C/C,/D,/E,/ F,/G,/A,/B,/ C/G,/E,/G,/ |]:[M:3/4] C,2 E,2 F,2 | G,2 F,2 E,2 | z2 G,2 G,2 | %113
 G,2 z3/2 x/ x2 | x4 D2 | z2 D2 D2 | C,4 B,,2 | A,/G,/^F,/E,/ D,/C,/B,,/A,,/ z/ B,,/D,/=F,/ | %118
 E, x x2 x2 | G,,6 :: z G,G,G,G,G, | z G,G,G,G,G, | z G, G,G,G,G, | G,G, G,,G,/^F,/ G,G,, | %124
 z2 G,2 G,2 | z2 [B,,G,]2 [C,G,]2 | F,4 E,2 | D/C/B,/A,/ G,/F,/E,/D,/ z/ E,/G,/_B,/ | %128
 [F,A,] F,,2 G,,2 z | C,,6 :| %130
V:3
 x6 | x6 | x6 | x6 | x6 | x2 D2 D2 | z2 x4 | x2 D2 D2 | x6 |1 x6 :|2 x6 |: x6 | x6 | G2 d2 c2 | %14
 Pc2 B4 | x6 | x6 | x6 | x6 | x6 |1 x6 :|2 x6 |]:[M:3/4] x6 | x6 | x6 | x6 | x6 | x6 | x6 | x6 | %30
 x6 |1 x6 :|2 x6 |: x6 | x6 | x6 | x6 | x6 | x6 | x6 | x6 | x6 |1 x6 :|2 x6 |]:[M:3/4] x6 | x6 | %46
 x6 | x6 | x6 | x6 | x6 | x6 | x6 |1 x6 :|2 x6 |: x6 | x6 | x6 | x6 | x6 | x6 | x6 | x6 | x6 |1 %64
 x6 :|2 x6 |]:[M:3/4] x6 | x6 | x6 | x6 | x6 | x6 | x6 | x6 | x6 |1 x6 :|2 x6 |: x6 | x6 | x6 | %80
 x6 | x6 | x6 | x6 | x6 | x6 |1 x6 :|2 x6 |]:[M:3/4] x6 | x6 | x6 | x6 | x6 | x6 | x6 | x6 | x6 :|1 %97
 x6 |:2 x6 |: x6 | x6 | x2 d2 c2 | Pc2 B4 | x6 | x6 | x6 | x6 | x6 |1 x6 :|2 x6 |]:[M:3/4] x6 | %111
 x6 | x6 | x6 | x6 | x6 | x6 | x6 | x6 | x6 :: x6 | x6 | x6 | x6 | x6 | x6 | x6 | x6 | x6 | x6 :| %130
V:4
 x6 | x6 | x6 | x6 | x6 | x6 | x6 | x6 | x6 |1 x6 :|2 x6 |: x6 | x6 | x6 | x6 | x2 F,2 E,2 | %16
 x2 B,,2 C,2 | x2 F,2 E,2 | x2 B,,2 C,2 | x6 |1 x6 :|2 x6 |]:[M:3/4] x6 | x6 | x6 | x6 | C4 B,2 | %27
 ^F,4 G,2 | x2 C2 B,2 | x2 ^F,2 G,2 | x6 |1 x6 :|2 x6 |: F,6 | E,6 | x2 B,,2 C,2 | x6 | F,4 E,2 | %38
 B,,4 C,2 | x2 F,2 E,2 | x2 B,,2 C,2 | x6 |1 x6 :|2 x6 |]:[M:3/4] x6 | x6 | x6 | x6 | x6 | x6 | %50
 x6 | x6 | x6 |1 x6 :|2 x6 |: x6 | x6 | x6 | x6 | x6 | x6 | x6 | x6 | x6 |1 x6 :|2 x6 |]: %66
[M:3/4] x6 | x6 | x6 | x6 | x6 | x6 | x6 | x6 | x6 |1 x6 :|2 x6 |: x6 | x6 | x6 | x6 | x6 | x6 | %83
 x6 | x6 | x6 |1 x6 :|2 x6 |]:[M:3/4] x6 | x6 | x6 | x6 | x6 | x6 | x6 | x6 | x6 :|1 x6 |:2 x6 |: %99
 x6 | x6 | x6 | x6 | x6 | x6 | x6 | x6 | x6 |1 x6 :|2 x6 |]:[M:3/4] x6 | x6 | x2 B,,2 B,,2 | %113
 C,2 x3/2 C,<E,G,/ | C2 C2 B,2 | x2 ^F,2 G,2 | x6 | ^F,,4 G,,2 | C,2 C,2 D,2 | x6 :: x F,F,F,F,F, | %121
 x E,E,E,E,E, | x B,, B,,B,,B,,B,, | C,C, x4 | x2 F,2 E,2 | x6 | x6 | B,,4 C,2 | x6 | x6 :| %130
V:5
 x6 | x6 | x6 | x6 | x6 | x6 | x6 | x6 | x6 |1 x6 :|2 x6 |: x6 | x6 | x6 | x6 | x6 | x6 | x6 | x6 | %19
 x6 |1 x6 :|2 x6 |]:[M:3/4] x6 | x6 | x6 | x6 | x6 | x6 | x6 | x6 | x6 |1 x6 :|2 x6 |: x6 | x6 | %35
 x6 | x6 | x6 | x6 | x6 | x6 | x6 |1 x6 :|2 x6 |]:[M:3/4] x6 | x6 | x6 | x6 | x6 | x6 | x6 | x6 | %52
 x6 |1 x6 :|2 x6 |: x6 | x6 | x6 | x6 | x6 | x6 | x6 | x6 | x6 |1 x6 :|2 x6 |]:[M:3/4] x6 | x6 | %68
 x6 | x6 | x6 | x6 | x6 | x6 | x6 |1 x6 :|2 x6 |: x6 | x6 | x6 | x6 | x6 | x6 | x6 | x6 | x6 |1 %86
 x6 :|2 x6 |]:[M:3/4] x6 | x6 | x6 | x6 | x6 | x6 | x6 | x6 | x6 :|1 x6 |:2 x6 |: x6 | x6 | x6 | %102
 x6 | x6 | x6 | x6 | x6 | x6 |1 x6 :|2 x6 |]:[M:3/4] x6 | x6 | x6 | x6 | x6 | x6 | x6 | x6 | x6 | %119
 x6 :: x6 | x6 | x6 | x6 | x6 | x6 | x6 | x6 | x6 | x2{F,} PE,4 :| %130

